images/Vector.svg

<svg width="70" height="54" fill="none" xmlns="http://www.w3.org/2000/svg"><path d="M3.49817 53.8865H59.4689c1.9318 0 3.4981-1.5663 3.4981-3.4982v-4.6642c0-1.9319-1.5663-3.4982-3.4981-3.4982h-1.1661V13.1468l6.6234-6.27436c1.5373.75782 3.398.29777 4.404-1.0909 1.0067-1.38811.8655-3.29946-.3336-4.52473C67.7975.0315355 65.8901-.15123 64.4798.824089c-1.4097.975891-1.9108 2.825751-1.1865 4.379541l-4.9905 4.73084V7.24423c0-1.93185-1.5663-3.49817-3.4982-3.49817H8.16239c-1.93185 0-3.49817 1.56632-3.49817 3.49817V42.2259H3.49817C1.56632 42.2259 0 43.7922 0 45.7241v4.6642c0 1.9319 1.56632 3.4982 3.49817 3.4982zM66.4652 2.58001c.6439 0 1.166.5221 1.166 1.16605s-.5221 1.16606-1.166 1.16606c-.644 0-1.1661-.52211-1.1661-1.16606 0-.64395.5221-1.16605 1.1661-1.16605zM6.99634 7.24423c0-.64395.5221-1.16606 1.16605-1.16606H54.8046c.644 0 1.1661.52211 1.1661 1.16606v4.89707l-2.3321 2.216V9.57634c0-.64395-.5221-1.16605-1.1661-1.16605h-41.978c-.64395 0-1.16605.5221-1.16605 1.16605V38.7277c0 .644.5221 1.1661 1.16605 1.1661h41.978c.644 0 1.1661-.5221 1.1661-1.1661V17.5651l2.3321-2.2097v26.8705H6.99634V7.24423zM17.4908 22.403c-1.5777-.0046-2.9629 1.0465-3.3825 2.5672-.4197 1.5208.23 3.1338 1.5868 3.9389 1.3562.8051 3.0842.6029 4.2178-.4942l4.0533 2.0337c.4709.2358 1.0419.1253 1.3921-.2681l8.6162-9.6934 8.4698 6.3466c.4544.3405 1.0886.3041 1.5009-.0859l7.3613-6.973v17.7869H11.6606V10.7424h39.6459v5.8195l-8.2501 7.8128-8.541-6.4031c-.4851-.3632-1.1678-.2949-1.5709.1577l-8.7346 9.8278-3.2653-1.6329c.0239-.1401.0387-.2813.0444-.4231 0-1.9318-1.5663-3.4981-3.4982-3.4981zm1.1661 3.4981c0 .644-.5221 1.1661-1.1661 1.1661-.6439 0-1.166-.5221-1.166-1.1661 0-.6439.5221-1.166 1.166-1.166.644 0 1.1661.5221 1.1661 1.166zm6.9963 18.6569h11.6606v1.1661c0 .6439-.5221 1.166-1.1661 1.166h-9.3284c-.644 0-1.1661-.5221-1.1661-1.166V44.558zM2.33211 45.7241c0-.644.52211-1.1661 1.16606-1.1661H23.3211v1.1661c0 1.9318 1.5663 3.4982 3.4982 3.4982h9.3284c1.9319 0 3.4982-1.5664 3.4982-3.4982V44.558h19.823c.6439 0 1.166.5221 1.166 1.1661v4.6642c0 .644-.5221 1.1661-1.166 1.1661H3.49817c-.64395 0-1.16606-.5221-1.16606-1.1661v-4.6642z" fill="#212121"/></svg>

<svg width="70" height="54" viewBox="0 0 70 54" fill="none" xmlns="http://www.w3.org/2000/svg">
<path d="M3.49817 53.8865H59.4689C61.4007 53.8865 62.967 52.3202 62.967 50.3883V45.7241C62.967 43.7922 61.4007 42.2259 59.4689 42.2259H58.3028V13.1468L64.9262 6.87244C66.4635 7.63026 68.3242 7.17021 69.3302 5.78154C70.3369 4.39343 70.1957 2.48208 68.9966 1.25681C67.7975 0.0315355 65.8901 -0.15123 64.4798 0.824089C63.0701 1.79998 62.569 3.64984 63.2933 5.20363L58.3028 9.93447V7.24423C58.3028 5.31238 56.7365 3.74606 54.8046 3.74606H8.16239C6.23054 3.74606 4.66422 5.31238 4.66422 7.24423V42.2259H3.49817C1.56632 42.2259 0 43.7922 0 45.7241V50.3883C0 52.3202 1.56632 53.8865 3.49817 53.8865ZM66.4652 2.58001C67.1091 2.58001 67.6312 3.10211 67.6312 3.74606C67.6312 4.39001 67.1091 4.91212 66.4652 4.91212C65.8212 4.91212 65.2991 4.39001 65.2991 3.74606C65.2991 3.10211 65.8212 2.58001 66.4652 2.58001ZM6.99634 7.24423C6.99634 6.60028 7.51844 6.07817 8.16239 6.07817H54.8046C55.4486 6.07817 55.9707 6.60028 55.9707 7.24423V12.1413L53.6386 14.3573V9.57634C53.6386 8.93239 53.1165 8.41029 52.4725 8.41029H10.4945C9.85055 8.41029 9.32845 8.93239 9.32845 9.57634V38.7277C9.32845 39.3717 9.85055 39.8938 10.4945 39.8938H52.4725C53.1165 39.8938 53.6386 39.3717 53.6386 38.7277V17.5651L55.9707 15.3554V42.2259H6.99634V7.24423ZM17.4908 22.403C15.9131 22.3984 14.5279 23.4495 14.1083 24.9702C13.6886 26.491 14.3383 28.104 15.6951 28.9091C17.0513 29.7142 18.7793 29.512 19.9129 28.4149L23.9662 30.4486C24.4371 30.6844 25.0081 30.5739 25.3583 30.1805L33.9745 20.4871L42.4443 26.8337C42.8987 27.1742 43.5329 27.1378 43.9452 26.7478L51.3065 19.7748V37.5617H11.6606V10.7424H51.3065V16.5619L43.0564 24.3747L34.5154 17.9716C34.0303 17.6084 33.3476 17.6767 32.9445 18.1293L24.2099 27.9571L20.9446 26.3242C20.9685 26.1841 20.9833 26.0429 20.989 25.9011C20.989 23.9693 19.4227 22.403 17.4908 22.403ZM18.6569 25.9011C18.6569 26.5451 18.1348 27.0672 17.4908 27.0672C16.8469 27.0672 16.3248 26.5451 16.3248 25.9011C16.3248 25.2572 16.8469 24.7351 17.4908 24.7351C18.1348 24.7351 18.6569 25.2572 18.6569 25.9011ZM25.6532 44.558H37.3138V45.7241C37.3138 46.368 36.7917 46.8901 36.1477 46.8901H26.8193C26.1753 46.8901 25.6532 46.368 25.6532 45.7241V44.558ZM2.33211 45.7241C2.33211 45.0801 2.85422 44.558 3.49817 44.558H23.3211V45.7241C23.3211 47.6559 24.8874 49.2223 26.8193 49.2223H36.1477C38.0796 49.2223 39.6459 47.6559 39.6459 45.7241V44.558H59.4689C60.1128 44.558 60.6349 45.0801 60.6349 45.7241V50.3883C60.6349 51.0323 60.1128 51.5544 59.4689 51.5544H3.49817C2.85422 51.5544 2.33211 51.0323 2.33211 50.3883V45.7241Z" fill="#212121"/>
</svg>
